;FLAVOR:UltiGCode
;TIME:6143
;MATERIAL:12752
;MATERIAL2:0
;NOZZLE_DIAMETER:0.4
;MINX:64.497
;MINY:88.815
;MINZ:0.17
;MAXX:154.587
;MAXY:134.185
;MAXZ:24.42
;TARGET_MACHINE.NAME:Ultimaker 2+
;Generated with Cura_SteamEngine 5.6.0
M82 ;absolute extrusion mode
G0 F3000 Y50 ;avoid prime blob
G92 E0
G92 E0
G10
;LAYER_COUNT:162
;LAYER:0
M107
G0 F9000 X71.046 Y89.874 Z0.27
;TYPE:SKIRT
G11
G1 F1800 X73.735 Y89.215 E0.29901
G1 X79.848 Y89.211 E0.95921
G1 X82.198 Y89.899 E1.22366
G1 X82.906 Y90.281 E1.31055
G1 X83.585 Y90.932 E1.41214
G1 X85.536 Y90.295 E1.63379
G1 X90.068 Y90.295 E2.12325
G1 X91.454 Y90.767 E2.28138
G1 X93.125 Y89.436 E2.5121
G1 X95.732 Y88.815 E2.80153
G1 X106.737 Y88.815 E3.99007
G1 X107.916 Y89.143 E4.12224
G1 X109.094 Y89.182 E4.24954
G1 X124.98 Y89.211 E5.96523
G1 X127.362 Y89.916 E6.23351
G1 X128.025 Y90.3 E6.31626
G1 X128.68 Y90.928 E6.41426
G1 X130.639 Y90.295 E6.6366
G1 X135.258 Y90.295 E7.13546
G1 X137.032 Y90.898 E7.33781
G1 X138.426 Y89.841 E7.52675
G1 X140.893 Y89.215 E7.80163
G1 X148.156 Y89.215 E8.58604
G1 X150.774 Y90.105 E8.88467
G1 X151.09 Y90.305 E8.92506
G1 X153.583 Y92.872 E9.31152
G1 X154.586 Y95.944 E9.66053
G1 X154.587 Y126.964 E13.01069
G1 X154.167 Y128.892 E13.2238
G1 X153.057 Y130.712 E13.45403
G1 X150.911 Y132.794 E13.77695
G1 X147.854 Y133.785 E14.12402
G1 X140.649 Y133.785 E14.90216
G1 X137.9 Y132.982 E15.21146
G1 X136.932 Y132.066 E15.35539
G1 X134.956 Y132.705 E15.57968
G1 X130.728 Y132.705 E16.03631
G1 X128.92 Y132.312 E16.23613
G1 X128.55 Y132.125 E16.2809
G1 X127.236 Y133.134 E16.45983
G1 X124.701 Y133.792 E16.74268
G1 X108.091 Y133.83 E18.53657
G1 X106.725 Y134.185 E18.68899
G1 X95.3 Y134.185 E19.92289
G1 X91.972 Y132.797 E20.31233
G1 X91.239 Y132.228 E20.41254
G1 X89.766 Y132.705 E20.57976
G1 X85.629 Y132.705 E21.02655
G1 X83.823 Y132.313 E21.22614
G1 X83.454 Y132.127 E21.27077
G1 X82.094 Y133.16 E21.45522
G1 X79.573 Y133.789 E21.73583
G1 X73.241 Y133.785 E22.41969
G1 X71.136 Y133.148 E22.65721
G1 X69.957 Y132.491 E22.80298
G1 X67.928 Y130.461 E23.11295
G1 X66.867 Y127.99 E23.40338
G1 X66.78 Y127.397 E23.46811
G1 X66.603 Y127.169 E23.49929
G1 X65.651 Y125.745 E23.68428
G1 X64.497 Y122.794 E24.02649
G1 X64.532 Y118.419 E24.49901
G1 X65.213 Y115.606 E24.81159
G1 X66.637 Y113.296 E25.10466
G1 X66.632 Y110.071 E25.45296
G1 X66.047 Y109.186 E25.56753
G1 X64.886 Y106.951 E25.83954
G1 X64.559 Y104.495 E26.10713
G1 X64.519 Y100.849 E26.50092
G1 X65.449 Y97.938 E26.83096
G1 X66.762 Y95.977 E27.08584
G1 X66.984 Y94.617 E27.23466
G1 X68.212 Y92.049 E27.54209
G1 X71.046 Y89.874 E27.92791
G0 F9000 X71.223 Y90.242
G1 F1800 X68.533 Y92.306 E28.29409
G1 X67.37 Y94.738 E28.58524
G1 X67.143 Y96.127 E28.73724
G1 X65.813 Y98.113 E28.99538
G1 X64.92 Y100.909 E29.31238
G1 X64.956 Y104.442 E29.69396
G1 X65.274 Y106.831 E29.95425
G1 X66.381 Y108.965 E30.21388
G1 X67.032 Y109.949 E30.34131
G1 X67.037 Y113.41 E30.7151
G1 X65.587 Y115.763 E31.0136
G1 X64.932 Y118.469 E31.31429
G1 X64.898 Y122.719 E31.7733
G1 X66.01 Y125.564 E32.1032
G1 X66.919 Y126.923 E32.27977
G1 X67.164 Y127.238 E32.32287
G1 X67.235 Y127.832 E32.38748
G1 X68.266 Y130.233 E32.66969
G1 X70.202 Y132.17 E32.96546
G1 X71.291 Y132.777 E33.10011
G1 X73.301 Y133.385 E33.3269
G1 X79.524 Y133.389 E33.99898
G1 X81.916 Y132.792 E34.26524
G1 X83.421 Y131.649 E34.46935
G1 X83.908 Y131.922 E34.52964
G1 X85.673 Y132.305 E34.7247
G1 X89.702 Y132.305 E35.15983
G1 X91.317 Y131.782 E35.34317
G1 X92.175 Y132.448 E35.46047
G1 X95.38 Y133.785 E35.83552
G1 X106.674 Y133.785 E37.05528
G1 X108.04 Y133.43 E37.2077
G1 X124.65 Y133.392 E39.00159
G1 X127.057 Y132.767 E39.27017
G1 X128.516 Y131.647 E39.46881
G1 X129.005 Y131.921 E39.52935
G1 X130.772 Y132.305 E39.72464
G1 X134.892 Y132.305 E40.1696
G1 X137.034 Y131.612 E40.41274
G1 X138.104 Y132.625 E40.57187
G1 X140.706 Y133.385 E40.86463
G1 X147.79 Y133.385 E41.6297
G1 X150.699 Y132.442 E41.95997
G1 X152.744 Y130.458 E42.26769
G1 X153.79 Y128.743 E42.48464
G1 X154.187 Y126.92 E42.68614
G1 X154.186 Y96.007 E46.02475
G1 X153.232 Y93.085 E46.35671
G1 X150.803 Y90.584 E46.73325
G1 X150.645 Y90.484 E46.75344
G1 X148.089 Y89.615 E47.04501
G1 X140.944 Y89.615 E47.81667
G1 X138.604 Y90.209 E48.0774
G1 X137.105 Y91.346 E48.2806
G1 X135.191 Y90.695 E48.49894
G1 X130.703 Y90.695 E48.98364
G1 X128.576 Y91.383 E49.22508
G1 X127.782 Y90.622 E49.34386
G1 X127.203 Y90.286 E49.41615
G1 X124.921 Y89.611 E49.67317
G1 X109.081 Y89.582 E51.38389
G1 X107.858 Y89.542 E51.51604
G1 X106.684 Y89.215 E51.64766
G1 X95.779 Y89.215 E52.8254
G1 X93.304 Y89.804 E53.10017
G1 X91.532 Y91.216 E53.34487
G1 X90.001 Y90.695 E53.51953
G1 X85.599 Y90.695 E53.99495
G1 X83.481 Y91.387 E54.23559
G1 X82.667 Y90.607 E54.35735
G1 X82.045 Y90.271 E54.4337
G1 X79.791 Y89.611 E54.68735
G1 X73.781 Y89.615 E55.33643
G1 X71.223 Y90.242 E55.62087
G0 F9000 X71.399 Y90.611
G1 F1800 X73.831 Y90.015 E55.8913
G1 X79.734 Y90.011 E56.52883
G1 X81.892 Y90.643 E56.77168
G1 X82.428 Y90.933 E56.8375
G1 X83.377 Y91.841 E56.97935
G1 X85.662 Y91.095 E57.23894
G1 X89.934 Y91.095 E57.70032
G1 X91.61 Y91.665 E57.89151
G1 X93.483 Y90.172 E58.1502
G1 X95.826 Y89.615 E58.41029
G1 X106.631 Y89.615 E59.57723
G1 X107.8 Y89.94 E59.70827
G1 X109.068 Y89.982 E59.84529
G1 X124.862 Y90.011 E61.55105
G1 X127.046 Y90.657 E61.79702
G1 X127.538 Y90.942 E61.85843
G1 X128.471 Y91.838 E61.99813
G1 X130.767 Y91.095 E62.25876
G1 X135.124 Y91.095 E62.72932
G1 X137.177 Y91.793 E62.96351
G1 X138.782 Y90.577 E63.18098
G1 X140.995 Y90.015 E63.42757
G1 X148.022 Y90.015 E64.18648
G1 X150.516 Y90.863 E64.47098
G1 X152.881 Y93.298 E64.83758
G1 X153.786 Y96.07 E65.15251
G1 X153.787 Y126.876 E68.47956
G1 X153.413 Y128.594 E68.66945
G1 X152.431 Y130.204 E68.87312
G1 X150.487 Y132.09 E69.16564
G1 X147.726 Y132.985 E69.4791
G1 X140.763 Y132.985 E70.23111
G1 X138.308 Y132.268 E70.50732
G1 X137.136 Y131.158 E70.68166
G1 X134.828 Y131.905 E70.94365
G1 X130.816 Y131.905 E71.37695
G1 X129.09 Y131.53 E71.56771
G1 X128.491 Y131.161 E71.64369
G1 X126.877 Y132.401 E71.8635
G1 X124.6 Y132.992 E72.11757
G1 X107.989 Y133.03 E73.91156
G1 X106.623 Y133.385 E74.06399
G1 X95.46 Y133.385 E75.26959
G1 X92.378 Y132.099 E75.63026
G1 X91.395 Y131.336 E75.76466
G1 X89.638 Y131.905 E75.96411
G1 X85.717 Y131.905 E76.38758
G1 X83.993 Y131.531 E76.57811
G1 X83.397 Y131.164 E76.6537
G1 X81.738 Y132.424 E76.87869
G1 X79.475 Y132.989 E77.13059
G1 X73.361 Y132.985 E77.79091
G1 X71.446 Y132.406 E78.00697
G1 X70.447 Y131.849 E78.1305
G1 X68.604 Y130.005 E78.41207
G1 X67.625 Y127.725 E78.68005
G1 X67.548 Y127.079 E78.75031
G1 X67.235 Y126.677 E78.80534
G1 X66.369 Y125.383 E78.9735
G1 X65.299 Y122.644 E79.29108
G1 X65.332 Y118.519 E79.73659
G1 X65.961 Y115.92 E80.02539
G1 X67.437 Y113.524 E80.32932
G1 X67.432 Y109.828 E80.72848
G1 X66.715 Y108.744 E80.86885
G1 X65.662 Y106.711 E81.11612
G1 X65.353 Y104.389 E81.3691
G1 X65.321 Y100.969 E81.73848
G1 X66.178 Y98.286 E82.04267
G1 X67.524 Y96.275 E82.30401
G1 X67.756 Y94.859 E82.45898
G1 X68.853 Y92.565 E82.7336
G1 X71.399 Y90.611 E83.08022
G0 F9000 X71.577 Y90.979
G1 F1800 X73.877 Y90.415 E83.33598
G1 X79.677 Y90.411 E83.96238
G1 X81.737 Y91.014 E84.19419
G1 X82.191 Y91.26 E84.24996
G1 X83.273 Y92.296 E84.41175
G1 X85.725 Y91.495 E84.69033
G1 X89.867 Y91.495 E85.13767
G1 X91.688 Y92.114 E85.34539
G1 X93.663 Y90.54 E85.61814
G1 X95.872 Y90.015 E85.86336
G1 X106.578 Y90.015 E87.01961
G1 X107.741 Y90.339 E87.15
G1 X109.055 Y90.382 E87.29198
G1 X124.803 Y90.411 E88.99277
G1 X126.933 Y91.041 E89.23266
G1 X127.261 Y91.231 E89.2736
G1 X128.367 Y92.293 E89.4392
G1 X130.831 Y91.495 E89.71892
G1 X135.057 Y91.495 E90.17533
G1 X137.249 Y92.24 E90.42536
G1 X138.958 Y90.946 E90.65687
G1 X141.047 Y90.415 E90.88966
G1 X147.955 Y90.415 E91.63572
G1 X150.296 Y91.211 E91.90277
G1 X152.53 Y93.511 E92.24905
G1 X153.386 Y96.133 E92.54694
G1 X153.387 Y126.832 E95.86243
G1 X153.036 Y128.445 E96.04071
G1 X152.118 Y129.95 E96.2311
G1 X150.275 Y131.738 E96.50843
G1 X147.662 Y132.585 E96.80509
G1 X140.82 Y132.585 E97.54402
G1 X138.512 Y131.911 E97.8037
G1 X137.238 Y130.704 E97.99323
G1 X134.764 Y131.505 E98.27408
G1 X130.86 Y131.505 E98.69571
G1 X129.243 Y131.154 E98.87442
G1 X128.466 Y130.676 E98.97294
G1 X126.698 Y132.034 E99.21371
G1 X124.549 Y132.592 E99.4535
G1 X107.938 Y132.63 E101.24749
G1 X106.572 Y132.985 E101.39992
G1 X95.54 Y132.985 E102.59137
G1 X92.581 Y131.75 E102.93766
G1 X91.756 Y131.11 E103.05043
G1 X91.57 Y130.859 E103.08417
G1 X89.574 Y131.505 E103.31075
G1 X85.761 Y131.505 E103.72255
G1 X84.144 Y131.154 E103.90125
G1 X83.373 Y130.68 E103.999
G1 X81.562 Y132.056 E104.24464
G1 X79.426 Y132.589 E104.4824
G1 X73.421 Y132.585 E105.13094
G1 X71.601 Y132.035 E105.33628
G1 X70.692 Y131.528 E105.44869
G1 X68.942 Y129.777 E105.71605
G1 X68.015 Y127.618 E105.96981
G1 X67.932 Y126.92 E106.04573
G1 X67.551 Y126.431 E106.11267
G1 X66.727 Y125.198 E106.27284
G1 X65.7 Y122.569 E106.57767
G1 X65.732 Y118.569 E107.00968
G1 X66.335 Y116.077 E107.28658
G1 X67.64 Y113.958 E107.55535
G1 X67.837 Y113.68 E107.59215
G1 X67.832 Y109.706 E108.02134
G1 X67.049 Y108.523 E108.17456
G1 X66.05 Y106.591 E108.40946
G1 X65.75 Y104.336 E108.65514
G1 X65.722 Y101.03 E109.0122
G1 X66.542 Y98.461 E109.30345
G1 X67.905 Y96.425 E109.56806
G1 X68.142 Y94.98 E109.7262
G1 X69.173 Y92.824 E109.98431
G1 X71.577 Y90.979 E110.31159
G0 F9000 X71.754 Y91.347
G1 F1800 X73.923 Y90.815 E110.55278
G1 X79.62 Y90.811 E111.16806
G1 X81.625 Y91.398 E111.39369
G1 X81.914 Y91.549 E111.4289
G1 X83.24 Y92.818 E111.62713
G1 X83.494 Y92.644 E111.66038
G1 X85.788 Y91.895 E111.921
G1 X89.8 Y91.895 E112.3543
G1 X91.841 Y92.589 E112.58712
G1 X92.028 Y92.354 E112.61955
G1 X93.843 Y90.908 E112.87018
G1 X95.918 Y90.415 E113.10052
G1 X106.525 Y90.415 E114.24607
G1 X107.683 Y90.737 E114.37588
G1 X109.042 Y90.782 E114.52273
G1 X124.744 Y90.811 E116.21855
G1 X126.82 Y91.425 E116.45236
G1 X126.984 Y91.52 E116.47283
G1 X128.341 Y92.823 E116.67601
G1 X128.612 Y92.634 E116.71169
G1 X130.895 Y91.895 E116.97085
G1 X134.99 Y91.895 E117.41311
G1 X136.996 Y92.577 E117.64194
G1 X137.284 Y92.792 E117.68075
G1 X137.485 Y92.56 E117.71391
G1 X139.134 Y91.314 E117.93712
G1 X141.098 Y90.815 E118.15597
G1 X147.888 Y90.815 E118.88929
G1 X150.076 Y91.559 E119.13889
G1 X152.179 Y93.724 E119.46486
G1 X152.986 Y96.196 E119.7457
G1 X152.987 Y126.788 E123.04963
G1 X152.659 Y128.296 E123.21631
G1 X151.805 Y129.696 E123.39342
G1 X150.063 Y131.386 E123.65554
G1 X147.598 Y132.185 E123.9354
G1 X140.877 Y132.185 E124.66126
G1 X138.716 Y131.554 E124.9044
G1 X137.259 Y130.174 E125.12113
G1 X136.985 Y130.365 E125.1572
G1 X134.7 Y131.105 E125.4166
G1 X130.904 Y131.105 E125.82657
G1 X129.394 Y130.777 E125.99345
G1 X128.369 Y130.148 E126.12334
G1 X128.13 Y130.43 E126.16326
G1 X126.518 Y131.668 E126.38277
G1 X124.499 Y132.192 E126.60805
G1 X107.887 Y132.23 E128.40215
G1 X106.521 Y132.585 E128.55458
G1 X95.62 Y132.585 E129.73189
G1 X92.784 Y131.402 E130.06375
G1 X92.001 Y130.794 E130.17082
G1 X91.743 Y130.382 E130.22332
G1 X89.51 Y131.105 E130.47681
G1 X85.805 Y131.105 E130.87695
G1 X84.295 Y130.777 E131.04383
G1 X83.267 Y130.145 E131.17416
G1 X83.003 Y130.458 E131.21838
G1 X81.384 Y131.688 E131.43797
G1 X79.377 Y132.189 E131.66138
G1 X73.481 Y132.185 E132.29815
G1 X71.756 Y131.664 E132.49276
G1 X70.937 Y131.207 E132.59405
G1 X69.28 Y129.549 E132.84721
G1 X68.405 Y127.511 E133.08674
G1 X68.316 Y126.762 E133.1682
G1 X67.884 Y126.209 E133.24399
G1 X67.085 Y125.013 E133.39933
G1 X66.101 Y122.494 E133.6914
G1 X66.132 Y118.619 E134.10991
G1 X66.709 Y116.234 E134.37493
G1 X67.981 Y114.168 E134.63695
G1 X68.237 Y113.808 E134.68466
G1 X68.232 Y109.586 E135.14064
G1 X67.404 Y108.339 E135.3023
G1 X66.438 Y106.471 E135.52942
G1 X66.147 Y104.283 E135.76781
G1 X66.123 Y101.091 E136.11255
G1 X66.906 Y98.636 E136.39085
G1 X68.286 Y96.575 E136.65873
G1 X68.528 Y95.101 E136.82005
G1 X69.494 Y93.081 E137.06187
G1 X71.754 Y91.347 E137.36952
G0 F9000 X71.929 Y91.716
G1 F1800 X73.973 Y91.215 E137.59681
G1 X79.563 Y91.211 E138.20053
G1 X81.513 Y91.782 E138.41997
G1 X81.678 Y91.877 E138.44053
G1 X83.22 Y93.353 E138.67106
G1 X83.618 Y93.024 E138.72683
G1 X85.851 Y92.295 E138.98052
G1 X89.733 Y92.295 E139.39978
G1 X91.677 Y92.956 E139.62154
G1 X91.929 Y93.153 E139.65608
G1 X92.277 Y92.667 E139.72064
G1 X94.023 Y91.276 E139.96173
G1 X95.964 Y90.815 E140.17719
G1 X106.472 Y90.815 E141.31206
G1 X107.625 Y91.136 E141.44132
G1 X109.029 Y91.182 E141.59303
G1 X124.685 Y91.211 E143.28388
G1 X126.707 Y91.809 E143.51161
G1 X128.322 Y93.359 E143.75336
G1 X128.735 Y93.015 E143.81141
G1 X130.959 Y92.295 E144.06388
G1 X134.923 Y92.295 E144.49199
G1 X136.867 Y92.956 E144.71374
G1 X137.333 Y93.372 E144.78121
G1 X137.726 Y92.879 E144.8493
G1 X139.31 Y91.682 E145.06372
G1 X141.149 Y91.215 E145.26864
G1 X147.821 Y91.215 E145.98922
G1 X149.856 Y91.907 E146.22136
G1 X151.828 Y93.937 E146.52701
G1 X152.586 Y96.259 E146.79081
G1 X152.587 Y126.744 E150.08319
G1 X152.282 Y128.147 E150.23825
G1 X151.492 Y129.442 E150.40208
G1 X149.851 Y131.034 E150.64901
G1 X147.534 Y131.785 E150.91206
G1 X140.934 Y131.785 E151.62486
G1 X138.92 Y131.197 E151.85145
G1 X137.276 Y129.639 E152.09607
G1 X136.862 Y129.984 E152.15427
G1 X134.636 Y130.705 E152.40698
G1 X130.948 Y130.705 E152.80528
G1 X129.545 Y130.4 E152.96034
G1 X128.275 Y129.622 E153.12119
G1 X127.886 Y130.113 E153.18885
G1 X126.339 Y131.301 E153.3995
G1 X124.448 Y131.792 E153.6105
G1 X107.836 Y131.83 E155.40461
G1 X106.47 Y132.185 E155.55703
G1 X95.7 Y132.185 E156.72019
G1 X92.987 Y131.053 E157.03768
G1 X92.246 Y130.478 E157.13898
G1 X91.898 Y129.822 E157.21918
G1 X91.672 Y129.984 E157.24921
G1 X89.446 Y130.705 E157.50191
G1 X85.849 Y130.705 E157.89039
G1 X84.446 Y130.4 E158.04545
G1 X83.174 Y129.619 E158.20665
G1 X82.761 Y130.14 E158.27846
G1 X81.208 Y131.32 E158.4891
G1 X79.328 Y131.789 E158.69837
G1 X73.541 Y131.785 E159.32336
G1 X71.911 Y131.293 E159.50725
G1 X71.182 Y130.886 E159.59742
G1 X69.618 Y129.321 E159.83637
G1 X68.795 Y127.404 E160.06168
G1 X68.7 Y126.602 E160.1489
G1 X68.217 Y125.987 E160.23336
G1 X67.443 Y124.828 E160.38388
G1 X66.502 Y122.419 E160.66319
G1 X66.532 Y118.669 E161.06821
G1 X67.083 Y116.391 E161.32133
G1 X68.322 Y114.378 E161.57661
G1 X68.637 Y113.934 E161.6354
G1 X68.632 Y109.464 E162.11816
G1 X67.759 Y108.155 E162.28809
G1 X66.826 Y106.351 E162.50744
G1 X66.544 Y104.23 E162.73852
G1 X66.523 Y101.152 E163.07095
G1 X67.27 Y98.811 E163.33634
G1 X68.667 Y96.725 E163.60748
G1 X68.914 Y95.222 E163.77199
G1 X69.815 Y93.338 E163.99753
G1 X71.929 Y91.716 E164.2853
G0 F9000 X72.105 Y92.085
G1 F1800 X74.023 Y91.615 E164.49857
G1 X79.506 Y91.611 E165.09074
G1 X81.401 Y92.166 E165.304
G1 X83.222 Y93.909 E165.57623
G1 X83.742 Y93.404 E165.65452
G1 X85.914 Y92.695 E165.90128
G1 X89.666 Y92.695 E166.30649
G1 X91.548 Y93.335 E166.52118
G1 X91.987 Y93.786 E166.58915
G1 X92.526 Y92.98 E166.69387
G1 X94.203 Y91.644 E166.92544
G1 X96.01 Y91.215 E167.12602
G1 X106.419 Y91.215 E168.25019
G1 X107.567 Y91.534 E168.37887
G1 X109.016 Y91.582 E168.53545
G1 X124.625 Y91.611 E170.22122
G1 X126.5 Y92.166 E170.43241
G1 X128.059 Y93.661 E170.66569
G1 X128.266 Y93.97 E170.70585
G1 X128.858 Y93.396 E170.79491
G1 X131.023 Y92.695 E171.04068
G1 X134.856 Y92.695 E171.45464
G1 X136.738 Y93.335 E171.66933
G1 X137.362 Y93.977 E171.76602
G1 X138.008 Y93.167 E171.87792
G1 X139.485 Y92.051 E172.07785
G1 X141.201 Y91.615 E172.26906
G1 X147.754 Y91.615 E172.97679
G1 X149.636 Y92.255 E173.19147
G1 X151.477 Y94.15 E173.47681
G1 X152.186 Y96.322 E173.72357
G1 X152.187 Y126.7 E177.0044
G1 X151.905 Y127.998 E177.14785
G1 X151.179 Y129.188 E177.2984
G1 X149.639 Y130.682 E177.53012
G1 X147.47 Y131.385 E177.77637
G1 X140.991 Y131.385 E178.47611
G1 X139.124 Y130.84 E178.68616
G1 X137.562 Y129.361 E178.91848
G1 X137.327 Y129.033 E178.96205
G1 X136.739 Y129.603 E179.0505
G1 X134.572 Y130.305 E179.29651
G1 X130.992 Y130.305 E179.68315
G1 X129.694 Y130.023 E179.8266
G1 X128.504 Y129.297 E179.97715
G1 X128.239 Y129.024 E180.01824
G1 X127.605 Y129.824 E180.12849
G1 X126.159 Y130.935 E180.32543
